X: 7
T: Donegal Reel
T: Larry Redican's Bow
C:Larry Redican
M:4/4
R:reel
K:D
"D"D2FD A,DFD|"Em"E2GE B,EGE|"D"D2dA "G"BAGF|"Em"G2F E2 GFE|
"D"D2FD A,DFD|"Em"E2GE B,EGE|"D"D2dA "G"BAGF|"A"EDCE "D"D3A:|
|:"G"B2BA B2Bc| dBBA B2Bd|"A"c~A3 fAeA|"D" ABde f2"(A)"ec|
"G"B2BA B2Bc| dBBA B2Bc|"D"dBcA BAFA |1"A"ABde "D"f2ec:|2"G"BdDE "D"FE2F|]


